X:1
T:Title
%%score { ( 1 3 ) | ( 2 4 ) }
L:1/8
M:4/4
K:Eb
V:1 treble nm="Grand Piano"
V:3 treble 
V:2 bass 
V:4 bass 
V:1
 z4 z2[Q:1/4=100] E>F | G2 _G2 =G2 G>[FA] | [GB]2 [_G=A]2 [=GB]2 c>c | G4 [DF]4 |[M:3/4] E6 | %5
[M:1/4] E>F |[M:4/4] G2 _G2 =G2 G>[FA] | [GB]2 [_G=A]2 [=GB]2 [GB]>[_Gc] | [Fd]4 [Ec]4 | %9
[M:3/4] [DB]6 |[M:1/4] E>F |[M:4/4] G4 [GB]4 | e6 z2 | [GB]4 [EG]4 |[M:3/4] [DF]6 | %15
[M:1/4] [DF][EG] |[M:4/4] [FA][FA] [FA]2 [FA]2 [EG][DF] | [EG][GB][GB][GB] [GB]2 [_Ge]>[Ge] | %18
 [Fd]4 [Ec]4 |[M:3/4] [DB]6 |[M:1/4] E>F |[M:4/4] G4 [GB]4 | e6 z2 | [GB]4 [EG]4 |[M:3/4] [DF]6 | %25
[M:1/4] [DF][EG] |[M:4/4] [FA][FA][FA][FA] [FA]2 [EG][DF] | [EG][GB][GB][GB] [GB]2 c>c | G4 [DF]4 | %29
[M:3/4] [B,E]6 |] %30
V:2
 z4 z2 [E,G,]>[E,A,E] | [E,B,E]2 [E,=A,E]2 [E,B,E]2 [E,B,E]>[E,B,] | %2
 [E,E]2 [E,E]2 [E,E]2[K:treble] [A,EA]>[A,EA] | [B,E]4 [B,,A,]4 |[M:3/4] [E,G,]6 | %5
[M:1/4] [E,G,]>[E,A,E] |[M:4/4] [E,B,E]2 [E,=A,E]2 [E,B,E]2 [E,B,E]>[E,B,] | %7
 [E,E]2 [E,E]2 [E,E]2 [E,B,]>[E,B,] | [F,B,]4 [F,=A,]4 |[M:3/4] [B,,B,]6 |[M:1/4] [E,G,]>[E,A,E] | %11
[M:4/4] E4 z4 | [E,B,]2 [E,C]2 [E,B,]2 [E,C]>[E,D] | [E,E]2 E,2 E,2 E,2 |[M:3/4] B,,2 B,,2 B,,2 | %15
[M:1/4] [B,,B,][B,,B,] |[M:4/4] [B,,B,][B,,B,] [B,,B,]2 [B,,B,]2 [B,,B,][B,,B,] | %17
 [E,B,][E,E][E,E][E,E] [E,E]2 [E,B,]>[E,B,] | [F,B,]4 [F,=A,]4 |[M:3/4] [B,,B,]6 | %20
[M:1/4] [E,G,]>[E,A,E] |[M:4/4] E4 z4 | [E,B,]2 [E,C]2 [E,B,]2 [E,C]>[E,D] | [E,E]2 E,2 E,2 E,2 | %24
[M:3/4] B,,2 B,,2 B,,2 |[M:1/4] [B,,B,][B,,B,] | %26
[M:4/4] [B,,B,][B,,B,][B,,B,][B,,B,] [B,,B,]2 [B,,B,][B,,B,] | %27
 [E,B,][E,E][E,E][E,E] [E,E]2[K:treble] [A,EA]>[A,EA] | [B,E]4 [B,,A,]4 |[M:3/4] [E,G,]6 |] %30
V:3
 x8 | x8 | x8 | x8 |[M:3/4] x6 |[M:1/4] x2 |[M:4/4] x8 | x8 | x8 |[M:3/4] x6 |[M:1/4] x2 | %11
[M:4/4] z2 B,2 E2 E2 | G2 A2 G2 [Bd]>[Ac] | z2 E2 B,2 B,2 |[M:3/4] B,2 B,2 B,2 |[M:1/4] x2 | %16
[M:4/4] x8 | x8 | x8 |[M:3/4] x6 |[M:1/4] x2 |[M:4/4] z2 B,2 E2 E2 | G2 A2 G2 [Bd]>[Ac] | %23
 z2 E2 B,2 B,2 |[M:3/4] B,2 B,2 B,2 |[M:1/4] x2 |[M:4/4] x8 | x8 | x8 |[M:3/4] x6 |] %30
V:4
 x8 | x8 | x6[K:treble] x2 | x8 |[M:3/4] x6 |[M:1/4] x2 |[M:4/4] x8 | x8 | x8 |[M:3/4] x6 | %10
[M:1/4] x2 |[M:4/4] [E,B,]2 E,2 E,2 E,2 | x8 | x8 |[M:3/4] x6 |[M:1/4] x2 |[M:4/4] x8 | x8 | x8 | %19
[M:3/4] x6 |[M:1/4] x2 |[M:4/4] [E,B,]2 E,2 E,2 E,2 | x8 | x8 |[M:3/4] x6 |[M:1/4] x2 |[M:4/4] x8 | %27
 x6[K:treble] x2 | x8 |[M:3/4] x6 |] %30

